X:102
T: Wugu fengdeng xiyangyang
N: C1595
O: China, Jiangsu, Xinghua
S: III, 509(1)]
R: Wuge, Qilinchang]
M: 2/4
L: 1/16
K: G
A2A2A2B2 | A2GEE2B2 | A2GEE4 |
A2A2GABd | A2GEE4 |
G2A2d2ed | e2d2d2dB | A2GEG4A4 | AGE2D4 |
A3Bd4 | A2GEG4A4 | AGE2D4

